X: 70
T:Molly put the Kettle on. GS.070
T:Polly put the Kettle on,aka. GS.070
M:2/4
L:1/8
Q:300
S:George Spencer m/s, Leeds,1831
R:Reel
O:England
A:Leeds
N:The date 1831 is written on the stave after the last double bar line.
H:1831
Z:vmp.Cherri Graebe
K:D major
abag | fd d2 | Beed | cAA2 | abag |! fd d2 | Bedc | d2d2 :||: fd  ge | f
d ge | !
Beed | cA A2 | fd ge | fd ge | Be dc | d2d2  :||
